icons/linear-ele-office-tool-tag-discount.svg

<svg xmlns="http://www.w3.org/2000/svg" width="32px" height="32px" viewBox="0 0 32 32" version="1.1">
    <title>linear-ele-office-tool-tag-discount</title>
    <g id="linear-ele-office-tool-tag-discount" stroke-width="1" fill-rule="evenodd">
        <path d="M16.624695,1.21913119 L26.624695,9.21913119 C26.8619103,9.40890338 27,9.69621628 27,10 L27,29 C27,29.5522847 26.5522847,30 26,30 L6,30 C5.44771525,30 5,29.5522847 5,29 L5,10 C5,9.69621628 5.13808972,9.40890338 5.37530495,9.21913119 L15.375305,1.21913119 C15.7405236,0.92695627 16.2594764,0.92695627 16.624695,1.21913119 Z M25,24 L7,24 L7,28 L25,28 L25,24 Z M16,3.28 L7,10.479 L7,22 L25,22 L25,10.48 L16,3.28 Z M16,9 C18.209139,9 20,10.790861 20,13 C20,15.209139 18.209139,17 16,17 C13.790861,17 12,15.209139 12,13 C12,10.790861 13.790861,9 16,9 Z M16,11 C14.8954305,11 14,11.8954305 14,13 C14,14.1045695 14.8954305,15 16,15 C17.1045695,15 18,14.1045695 18,13 C18,11.8954305 17.1045695,11 16,11 Z" id="&#24418;&#29366;" fill-rule="nonzero" />
    </g>
</svg>

<svg xmlns="http://www.w3.org/2000/svg" viewBox="0 0 32 32"><path fill="currentColor" d="m16.625 1.22 10 8A1 1 0 0 1 27 10v19a1 1 0 0 1-1 1H6a1 1 0 0 1-1-1V10a1 1 0 0 1 .375-.78l10-8a1 1 0 0 1 1.25 0M25 24H7v4h18zM16 3.28l-9 7.199V22h18V10.48zM16 9a4 4 0 1 1 0 8 4 4 0 0 1 0-8m0 2a2 2 0 1 0 0 4 2 2 0 0 0 0-4"/></svg>
